tools/download-figma-icons/icons/solid/fan.svg

<svg width="24" height="24" viewBox="0 0 24 24" fill="none" xmlns="http://www.w3.org/2000/svg">
<path d="M23.5436 5.40548C22.7864 3.75693 21.1745 2.543 18.753 1.85361C16.7887 1.2991 15.1469 1.51641 13.8649 2.48306C12.1855 3.76443 11.6157 6.05741 11.3758 7.55609C11.2134 7.57083 11.0527 7.60094 10.896 7.64601C10.7951 7.5599 10.7112 7.4557 10.6486 7.33878C10.4087 6.88168 10.4987 6.13234 10.9185 4.98585C12.0056 2.02596 10.6561 0.871977 9.75646 0.444854C9.06923 0.151328 8.32964 0 7.5823 0C6.83496 0 6.09537 0.151328 5.40814 0.444854C3.75879 1.22417 2.54426 2.83525 1.85453 5.25561C1.29974 7.21888 1.51716 8.85994 2.48428 10.1413C3.76628 11.8198 6.06039 12.3893 7.55231 12.6216C7.57322 12.7861 7.60578 12.9488 7.64977 13.1087C7.56363 13.2095 7.45937 13.2934 7.34239 13.356C6.88507 13.5958 6.13536 13.5058 4.98831 13.0862C2.02696 11.9997 0.872407 13.3485 0.445073 14.2477C0.151403 14.9346 0 15.6738 0 16.4208C0 17.1677 0.151403 17.907 0.445073 18.5939C1.19478 20.2649 2.81415 21.4563 5.24321 22.1457C5.89418 22.334 6.56734 22.4348 7.24493 22.4455C8.2835 22.4641 9.29882 22.1372 10.1313 21.5163C11.8107 20.2349 12.3804 17.9494 12.6203 16.4433C12.7828 16.4285 12.9434 16.3984 13.1002 16.3533C13.2011 16.4394 13.285 16.5436 13.3476 16.6606C13.5875 17.1177 13.4975 17.867 13.0777 19.0135C12.0056 21.9734 13.3551 23.1274 14.2547 23.5545C14.9418 23.8484 15.6815 24 16.4289 24C17.1763 24 17.9159 23.8484 18.603 23.5545C20.2749 22.8051 21.4669 21.1866 22.1566 18.7587C22.7114 16.7954 22.494 15.1544 21.5269 13.873C20.2449 12.1945 17.9508 11.625 16.4589 11.3927C16.438 11.2282 16.4054 11.0655 16.3614 10.9056C16.4475 10.8048 16.5518 10.7209 16.6688 10.6584C17.1261 10.4186 17.8758 10.5085 19.0229 10.9281C21.9842 11.9997 23.1388 10.6509 23.5661 9.75165C23.8562 9.06325 24.0038 8.32324 23.9999 7.57627C23.9961 6.82929 23.8408 6.09085 23.5436 5.40548ZM13.3101 14.6898C12.9058 14.8942 12.4586 14.9995 12.0056 14.997C11.4432 14.9954 10.8927 14.8357 10.4167 14.5363C9.94083 14.2368 9.55875 13.8096 9.31413 13.3035C9.10966 12.8994 9.0043 12.4525 9.00675 11.9997C9.0084 11.4376 9.16814 10.8873 9.46774 10.4116C9.76734 9.93594 10.1947 9.55405 10.7011 9.30954C11.1054 9.10518 11.5525 8.99987 12.0056 9.00231C12.5679 9.00396 13.1185 9.16363 13.5944 9.46308C14.0703 9.76253 14.4524 10.1897 14.697 10.6958C14.9015 11.0999 15.0069 11.5468 15.0044 11.9997C15.0028 12.5618 14.843 13.112 14.5434 13.5877C14.2438 14.0634 13.8164 14.4453 13.3101 14.6898Z" fill="black"/>
</svg>

<svg width="24" height="24" viewBox="0 0 24 24" fill="none" xmlns="http://www.w3.org/2000/svg"><path d="M23.544 5.405c-.758-1.648-2.37-2.862-4.791-3.551-1.964-.555-3.606-.338-4.888.63-1.68 1.28-2.25 3.573-2.49 5.072a2.58 2.58 0 0 0-.479.09c-.1-.086-.185-.19-.247-.307-.24-.457-.15-1.207.27-2.353 1.087-2.96-.263-4.114-1.163-4.541a5.535 5.535 0 0 0-4.348 0c-1.65.78-2.864 2.39-3.553 4.81-.555 1.964-.338 3.605.63 4.886 1.281 1.679 3.575 2.248 5.067 2.48a3.5 3.5 0 0 0 .098.488c-.086.1-.19.184-.308.247-.457.24-1.207.15-2.354-.27C2.027 12 .872 13.348.445 14.248a5.528 5.528 0 0 0 0 4.346c.75 1.67 2.37 2.862 4.798 3.552a7.663 7.663 0 0 0 2.002.3 4.688 4.688 0 0 0 2.886-.93c1.68-1.281 2.25-3.567 2.49-5.073.162-.015.322-.045.48-.09.1.086.184.19.247.308.24.457.15 1.206-.27 2.352-1.072 2.96.277 4.114 1.177 4.541a5.529 5.529 0 0 0 4.348 0c1.672-.749 2.864-2.367 3.554-4.795.554-1.964.337-3.605-.63-4.886-1.282-1.678-3.576-2.248-5.068-2.48a3.497 3.497 0 0 0-.098-.487c.087-.101.19-.185.308-.248.457-.24 1.207-.15 2.354.27 2.961 1.072 4.116-.277 4.543-1.176a5.527 5.527 0 0 0-.022-4.347ZM13.31 14.69c-.404.204-.851.31-1.304.307a3 3 0 0 1-2.692-1.694A2.854 2.854 0 0 1 9.007 12 2.996 2.996 0 0 1 10.7 9.31c.404-.205.851-.31 1.305-.308a3 3 0 0 1 2.691 1.694c.205.404.31.85.307 1.304a2.996 2.996 0 0 1-1.694 2.69Z" fill="currentColor"/></svg>
